svgs/thin/stopwatch-20.svg

<svg xmlns="http://www.w3.org/2000/svg" viewBox="0 0 448 512"><!-- Font Awesome Pro 6.0.0-alpha2 by @fontawesome - https://fontawesome.com License - https://fontawesome.com/license (Commercial License) --><path d="M384.082 171.23L421.656 133.656C424.781 130.531 424.781 125.469 421.656 122.344S413.469 119.219 410.344 122.344L373.311 159.375C337.242 122.148 287.412 98.516 232 96.406V16H288C292.422 16 296 12.406 296 8S292.422 0 288 0H160C155.578 0 152 3.594 152 8S155.578 16 160 16H216V96.406C104.863 100.641 16 191.828 16 304C16 418.875 109.125 512 224 512S432 418.875 432 304C432 253.516 413.994 207.254 384.082 171.23ZM224 496C118.131 496 32 409.867 32 304S118.131 112 224 112S416 198.133 416 304S329.869 496 224 496ZM196.594 273.562C203.953 264 208 252.062 208 240C208 213.531 186.469 192 160 192S112 213.531 112 240V248C112 252.406 115.578 256 120 256S128 252.406 128 248V240C128 222.344 142.359 208 160 208S192 222.344 192 240C192 248.562 189.125 257.031 183.906 263.812L142.922 317.094C122.984 343 112 375.312 112 408C112 412.406 115.578 416 120 416H200C204.422 416 208 412.406 208 408S204.422 400 200 400H128.25C129.859 373.594 139.438 347.875 155.609 326.844L196.594 273.562ZM288 192C261.531 192 240 213.531 240 240V368C240 394.469 261.531 416 288 416S336 394.469 336 368V240C336 213.531 314.469 192 288 192ZM320 368C320 385.656 305.641 400 288 400S256 385.656 256 368V240C256 222.344 270.359 208 288 208S320 222.344 320 240V368Z"/></svg>

<svg xmlns="http://www.w3.org/2000/svg" viewBox="0 0 448 512"><!--! Font Awesome Pro 6.0.0-alpha3 by @fontawesome - https://fontawesome.com License - https://fontawesome.com/license (Commercial License) --><path d="M384.1 171.2l37.57-37.57c3.125-3.125 3.125-8.188 0-11.31s-8.188-3.125-11.31 0l-37.03 37.03C337.2 122.1 287.4 98.52 232 96.41V16H288c4.422 0 8-3.594 8-8S292.4 0 288 0H160C155.6 0 152 3.594 152 8S155.6 16 160 16h56v80.41C104.9 100.6 16 191.8 16 304c0 114.9 93.13 208 208 208s208-93.13 208-208C432 253.5 413.1 207.3 384.1 171.2zM224 496c-105.9 0-192-86.13-192-192s86.13-192 192-192s192 86.13 192 192S329.9 496 224 496zM196.6 273.6C203.1 264 208 252.1 208 240C208 213.5 186.5 192 160 192S112 213.5 112 240v8C112 252.4 115.6 256 120 256S128 252.4 128 248V240c0-17.66 14.36-32 32-32s32 14.34 32 32c0 8.562-2.875 17.03-8.094 23.81L142.9 317.1C122.1 343 112 375.3 112 408C112 412.4 115.6 416 120 416h80c4.422 0 8-3.594 8-8S204.4 400 200 400H128.3c1.609-26.41 11.19-52.13 27.36-73.16L196.6 273.6zM288 192c-26.47 0-48 21.53-48 48v128c0 26.47 21.53 48 48 48s48-21.53 48-48v-128C336 213.5 314.5 192 288 192zM320 368c0 17.66-14.36 32-32 32s-32-14.34-32-32v-128c0-17.66 14.36-32 32-32s32 14.34 32 32V368z"/></svg>
